ummisco.gama.ui.shared/svg/views/tabs/view.inspector.svg

<svg xmlns="http://www.w3.org/2000/svg" xmlns:xl="http://www.w3.org/1999/xlink" width="16" height="16" version="1.1" viewBox="-792 -3330 16 16"><g id="ICONES" fill="none" fill-opacity="1" stroke="none" stroke-dasharray="none" stroke-opacity="1"><title>ICONES</title><g id="ICONES_Calque_1"><title>Calque 1</title><g id="Group_3393"><g id="Graphic_3247"><title>views/tabs/view.inspector</title><path fill="#5c76a2" d="M -784 -3327.4545 C -787.6364 -3327.4545 -790.7418 -3325.1927 -792 -3322 C -790.7418 -3318.8073 -787.6364 -3316.5455 -784 -3316.5455 C -780.3636 -3316.5455 -777.2582 -3318.8073 -776 -3322 C -777.2582 -3325.1927 -780.3636 -3327.4545 -784 -3327.4545 Z M -784 -3318.3636 C -786.0073 -3318.3636 -787.6364 -3319.9927 -787.6364 -3322 C -787.6364 -3324.0073 -786.0073 -3325.6364 -784 -3325.6364 C -781.9927 -3325.6364 -780.3636 -3324.0073 -780.3636 -3322 C -780.3636 -3319.9927 -781.9927 -3318.3636 -784 -3318.3636 Z M -784 -3324.182 C -785.2073 -3324.182 -786.1818 -3323.2073 -786.1818 -3322 C -786.1818 -3320.7927 -785.2073 -3319.818 -784 -3319.818 C -782.7927 -3319.818 -781.8182 -3320.7927 -781.8182 -3322 C -781.8182 -3323.2073 -782.7927 -3324.182 -784 -3324.182 Z"/></g></g></g></g></svg>

<svg xmlns="http://www.w3.org/2000/svg" width="16" height="16" viewBox="-792 -3330 16 16"><g fill="none"><path fill="#5c76a2" d="M-784-3327.454c-3.636 0-6.742 2.261-8 5.454 1.258 3.193 4.364 5.454 8 5.454s6.742-2.261 8-5.454c-1.258-3.193-4.364-5.454-8-5.454Zm0 9.09a3.638 3.638 0 0 1-3.636-3.636 3.638 3.638 0 0 1 3.636-3.636 3.638 3.638 0 0 1 3.636 3.636 3.638 3.638 0 0 1-3.636 3.636Zm0-5.818a2.179 2.179 0 0 0-2.182 2.182c0 1.207.975 2.182 2.182 2.182a2.179 2.179 0 0 0 2.182-2.182 2.179 2.179 0 0 0-2.182-2.182Z"/></g></svg>
